svgs/sharp-regular/indian-rupee-sign.svg

<svg xmlns="http://www.w3.org/2000/svg" viewBox="0 0 320 512"><!--! Font Awesome Pro 6.6.0 by @fontawesome - https://fontawesome.com License - https://fontawesome.com/license (Commercial License) Copyright 2024 Fonticons, Inc. --><path d="M0 32l24 0 56 0 24 0 192 0 24 0 0 48-24 0-84.7 0c17.7 19.8 30.1 44.6 34.7 72l50 0 24 0 0 48-24 0-50 0c-11.4 68.1-70.7 120-142 120l-8.4 0L268.7 427.6l20.4 12.7-25.3 40.8-20.4-12.7L11.3 324.1 0 317.1l0-13.3L0 296l0-24 24 0 80 0c44.7 0 82.3-30.6 93-72L24 200 0 200l0-48 24 0 173 0c-10.7-41.4-48.2-72-93-72L80 80 24 80 0 80 0 32z"/></svg>

<svg xmlns="http://www.w3.org/2000/svg" viewBox="0 0 320 512"><!--! Font Awesome Pro 6.4.0 by @fontawesome - https://fontawesome.com License - https://fontawesome.com/license (Commercial License) Copyright 2023 Fonticons, Inc. --><path d="M0 32H24 80h24H296h24V80H296 211.3c17.7 19.8 30.1 44.6 34.7 72h50 24v48H296 246c-11.4 68.1-70.7 120-142 120H95.6L268.7 427.6l20.4 12.7-25.3 40.8-20.4-12.7L11.3 324.1 0 317.1V303.7 296 272H24h80c44.7 0 82.3-30.6 93-72H24 0V152H24 197c-10.7-41.4-48.2-72-93-72H80 24 0V32z"/></svg>
